X: 13
T: Mother Midnight's Taste
R: jig
M: 6/8
L: 1/8
Z: 2010,2014 John Chambers <jc:trillian.mit.edu>
B: Longman ed. "Twenty Four Country Dances", p.31 London 1770
K: Bb
|: fed edc | dcB AGF | GAB cde | dcB AGF |\
   fed edc | Bdf b2e | dcB FBA | B3  B,3 :|
|: BdB AcA | Bdf bfd | AcA FAF | Acf afc |\
   dBG cAF | BGE DFB | EGc FBA | B3  B,3 :|
% - - - - - - - - - - - - - - - - - - - - - - - - -
%%begintext align
%% Cast Down two Cu: .|
%% lead up to the Top and foot, Cast off .|.
%% hands a Cross with the 3d Cu: :|.
%% right and Left with the Top :|:
%%endtext
% - - - - - - - - - - - - - - - - - - - - - - - - -
